icons/project-template-24.svg

<svg width="24" height="24" viewBox="0 0 24 24" fill="none" xmlns="http://www.w3.org/2000/svg">
<path fill-rule="evenodd" clip-rule="evenodd" d="M3.75 3.5C3.61193 3.5 3.5 3.61193 3.5 3.75V5.8125C3.5 6.22671 3.16421 6.5625 2.75 6.5625C2.33579 6.5625 2 6.22671 2 5.8125V3.75C2 2.7835 2.7835 2 3.75 2H5.8125C6.22671 2 6.5625 2.33579 6.5625 2.75C6.5625 3.16421 6.22671 3.5 5.8125 3.5H3.75ZM9.1875 2.75C9.1875 2.33579 9.52329 2 9.9375 2H14.0625C14.4767 2 14.8125 2.33579 14.8125 2.75C14.8125 3.16421 14.4767 3.5 14.0625 3.5H9.9375C9.52329 3.5 9.1875 3.16421 9.1875 2.75ZM17.4375 2.75C17.4375 2.33579 17.7733 2 18.1875 2H20.25C21.2165 2 22 2.7835 22 3.75V5.8125C22 6.22671 21.6642 6.5625 21.25 6.5625C20.8358 6.5625 20.5 6.22671 20.5 5.8125V3.75C20.5 3.61193 20.3881 3.5 20.25 3.5H18.1875C17.7733 3.5 17.4375 3.16421 17.4375 2.75ZM21.25 9.1875C21.6642 9.1875 22 9.52329 22 9.9375V14.0625C22 14.4767 21.6642 14.8125 21.25 14.8125C20.8358 14.8125 20.5 14.4767 20.5 14.0625V9.9375C20.5 9.52329 20.8358 9.1875 21.25 9.1875ZM2.75 9.1875C3.16421 9.1875 3.5 9.52329 3.5 9.9375V14.0625C3.5 14.4767 3.16421 14.8125 2.75 14.8125C2.33579 14.8125 2 14.4767 2 14.0625V9.9375C2 9.52329 2.33579 9.1875 2.75 9.1875ZM2.75 17.4375C3.16421 17.4375 3.5 17.7733 3.5 18.1875V20.25C3.5 20.3881 3.61193 20.5 3.75 20.5H5.8125C6.22671 20.5 6.5625 20.8358 6.5625 21.25C6.5625 21.6642 6.22671 22 5.8125 22H3.75C2.7835 22 2 21.2165 2 20.25V18.1875C2 17.7733 2.33579 17.4375 2.75 17.4375ZM21.25 17.4375C21.6642 17.4375 22 17.7733 22 18.1875V20.25C22 21.2165 21.2165 22 20.25 22H18.1875C17.7733 22 17.4375 21.6642 17.4375 21.25C17.4375 20.8358 17.7733 20.5 18.1875 20.5H20.25C20.3881 20.5 20.5 20.3881 20.5 20.25V18.1875C20.5 17.7733 20.8358 17.4375 21.25 17.4375ZM9.1875 21.25C9.1875 20.8358 9.52329 20.5 9.9375 20.5H14.0625C14.4767 20.5 14.8125 20.8358 14.8125 21.25C14.8125 21.6642 14.4767 22 14.0625 22H9.9375C9.52329 22 9.1875 21.6642 9.1875 21.25Z" fill="black"/>
<path fill-rule="evenodd" clip-rule="evenodd" d="M3.75 8.25C3.75 7.83579 4.08579 7.5 4.5 7.5H6.5C6.91421 7.5 7.25 7.83579 7.25 8.25C7.25 8.66421 6.91421 9 6.5 9H4.5C4.08579 9 3.75 8.66421 3.75 8.25Z" fill="black"/>
<path fill-rule="evenodd" clip-rule="evenodd" d="M9.25 8.25C9.25 7.83579 9.58579 7.5 10 7.5H12C12.4142 7.5 12.75 7.83579 12.75 8.25C12.75 8.66421 12.4142 9 12 9H10C9.58579 9 9.25 8.66421 9.25 8.25Z" fill="black"/>
<path fill-rule="evenodd" clip-rule="evenodd" d="M8.25 3.75C8.66421 3.75 9 4.08579 9 4.5V6.5C9 6.91421 8.66421 7.25 8.25 7.25C7.83579 7.25 7.5 6.91421 7.5 6.5V4.5C7.5 4.08579 7.83579 3.75 8.25 3.75Z" fill="black"/>
<path fill-rule="evenodd" clip-rule="evenodd" d="M8.25 9.25C8.66421 9.25 9 9.58579 9 10V12C9 12.4142 8.66421 12.75 8.25 12.75C7.83579 12.75 7.5 12.4142 7.5 12V10C7.5 9.58579 7.83579 9.25 8.25 9.25Z" fill="black"/>
<path fill-rule="evenodd" clip-rule="evenodd" d="M8.25 14C8.66421 14 9 14.3358 9 14.75V18.75C9 19.1642 8.66421 19.5 8.25 19.5C7.83579 19.5 7.5 19.1642 7.5 18.75V14.75C7.5 14.3358 7.83579 14 8.25 14Z" fill="black"/>
<path fill-rule="evenodd" clip-rule="evenodd" d="M14 8.25C14 7.83579 14.3358 7.5 14.75 7.5H18.75C19.1642 7.5 19.5 7.83579 19.5 8.25C19.5 8.66421 19.1642 9 18.75 9H14.75C14.3358 9 14 8.66421 14 8.25Z" fill="black"/>
</svg>

<svg xmlns="http://www.w3.org/2000/svg" width="24" height="24" viewBox="0 0 24 24"><path d="M3.75 3.5a.25.25 0 0 0-.25.25v2.062a.75.75 0 1 1-1.5 0V3.75C2 2.783 2.783 2 3.75 2h2.062a.75.75 0 1 1 0 1.5Zm13.688-.75a.75.75 0 0 1 .75-.75h2.062c.966 0 1.75.783 1.75 1.75v2.062a.75.75 0 1 1-1.5 0V3.75a.25.25 0 0 0-.25-.25h-2.062a.75.75 0 0 1-.75-.75ZM2.75 17.438a.75.75 0 0 1 .75.75v2.062c0 .138.112.25.25.25h2.062a.75.75 0 1 1 0 1.5H3.75A1.75 1.75 0 0 1 2 20.25v-2.062a.75.75 0 0 1 .75-.75Zm18.5 0a.75.75 0 0 1 .75.75v2.062A1.75 1.75 0 0 1 20.25 22h-2.062a.75.75 0 1 1 0-1.5h2.062a.25.25 0 0 0 .25-.25v-2.062a.75.75 0 0 1 .75-.75Zm-18.5-8.25a.75.75 0 0 1 .75.75v4.124a.75.75 0 1 1-1.5 0V9.938a.75.75 0 0 1 .75-.75ZM9.188 2.75a.75.75 0 0 1 .75-.75h4.124a.75.75 0 1 1 0 1.5H9.938a.75.75 0 0 1-.75-.75Zm0 18.5a.75.75 0 0 1 .75-.75h4.124a.75.75 0 1 1 0 1.5H9.938a.75.75 0 0 1-.75-.75ZM21.25 9.188a.75.75 0 0 1 .75.75v4.124a.75.75 0 1 1-1.5 0V9.938a.75.75 0 0 1 .75-.75ZM3.75 8.25a.75.75 0 0 1 .75-.75h2a.75.75 0 0 1 0 1.5h-2a.75.75 0 0 1-.75-.75Zm5.5 0A.75.75 0 0 1 10 7.5h2A.75.75 0 0 1 12 9h-2a.75.75 0 0 1-.75-.75Zm-1-4.5A.75.75 0 0 1 9 4.5v2a.75.75 0 0 1-1.5 0v-2a.75.75 0 0 1 .75-.75Zm0 5.5A.75.75 0 0 1 9 10v2a.75.75 0 0 1-1.5 0v-2a.75.75 0 0 1 .75-.75Zm0 4.75a.75.75 0 0 1 .75.75v4a.75.75 0 0 1-1.5 0v-4a.75.75 0 0 1 .75-.75ZM14 8.25a.75.75 0 0 1 .75-.75h4a.75.75 0 0 1 0 1.5h-4a.75.75 0 0 1-.75-.75Z"/></svg>
